static/images/icon-instagram.svg

<svg width="24" height="24" xmlns="http://www.w3.org/2000/svg">

 <g>
  <title>background</title>
  <rect fill="none" id="canvas_background" height="402" width="582" y="-1" x="-1"/>
 </g>
 <g>
  <title>Layer 1</title>
  <path id="svg_1" fill="#8953b7" d="m12.0198,5.78178c-3.45401,0 -6.26465,2.76963 -6.26465,6.17432c0,3.4042 2.81025,6.1739 6.26465,6.1739c3.4541,0 6.2647,-2.7697 6.2647,-6.1739c0,-3.40469 -2.8106,-6.17432 -6.2647,-6.17432zm0,10.07522c-2.19628,0 -3.98277,-1.7503 -3.98277,-3.9009c0,-2.15106 1.78649,-3.9009 3.98277,-3.9009c2.1959,0 3.9828,1.74984 3.9828,3.9009c0,2.151 -1.7865,3.9009 -3.9828,3.9009z"/>
  <path id="svg_2" fill="#8953b7" d="m17.0919,0l-10.18384,0c-3.80889,0 -6.90806,3.08676 -6.90806,6.88127l0,10.23743c0,3.7941 3.09877,6.8813 6.90806,6.8813l10.18384,0c3.8093,0 6.9081,-3.0872 6.9081,-6.8813l0,-10.23743c0,-3.79412 -3.0988,-6.88127 -6.9081,-6.88127zm4.6219,17.1187c0,2.5386 -2.0734,4.604 -4.6219,4.604l-10.18384,0c-2.54842,0 -4.62186,-2.0654 -4.62186,-4.604l0,-10.23743c0,-2.53854 2.07344,-4.60393 4.62186,-4.60393l10.18384,0c2.5485,0 4.6219,2.06539 4.6219,4.60393l0,10.23743z"/>
  <path id="svg_3" fill="#8953B7" d="m18.396,6.99781c0.8141,0 1.474,-0.65738 1.474,-1.4683c0,-0.81093 -0.6599,-1.46831 -1.474,-1.46831c-0.8141,0 -1.474,0.65738 -1.474,1.46831c0,0.81092 0.6599,1.4683 1.474,1.4683z"/>
 </g>
</svg>

<svg width="24" height="24" viewBox="0 0 24 24" fill="none" xmlns="http://www.w3.org/2000/svg">
<path d="M12.0198 5.78178C8.56579 5.78178 5.75515 8.55141 5.75515 11.9561C5.75515 15.3603 8.5654 18.13 12.0198 18.13C15.4739 18.13 18.2845 15.3603 18.2845 11.9561C18.2845 8.55141 15.4739 5.78178 12.0198 5.78178ZM12.0198 15.857C9.82352 15.857 8.03703 14.1067 8.03703 11.9561C8.03703 9.80504 9.82352 8.0552 12.0198 8.0552C14.2157 8.0552 16.0026 9.80504 16.0026 11.9561C16.0026 14.1071 14.2161 15.857 12.0198 15.857Z" fill="#797283"/>
<path d="M17.0919 0H6.90806C3.09917 0 0 3.08676 0 6.88127V17.1187C0 20.9128 3.09877 24 6.90806 24H17.0919C20.9012 24 24 20.9128 24 17.1187V6.88127C24 3.08715 20.9012 0 17.0919 0ZM21.7138 17.1187C21.7138 19.6573 19.6404 21.7227 17.0919 21.7227H6.90806C4.35964 21.7227 2.2862 19.6573 2.2862 17.1187V6.88127C2.2862 4.34273 4.35964 2.27734 6.90806 2.27734H17.0919C19.6404 2.27734 21.7138 4.34273 21.7138 6.88127V17.1187Z" fill="#797283"/>
<path d="M18.396 6.99781C19.2101 6.99781 19.87 6.34043 19.87 5.52951C19.87 4.71858 19.2101 4.0612 18.396 4.0612C17.5819 4.0612 16.922 4.71858 16.922 5.52951C16.922 6.34043 17.5819 6.99781 18.396 6.99781Z" fill="#797283"/>
</svg>
